X: 30354
M: 6/8
L: 1/8
K: D
|: d/e/ |\
fdf fdf | ece ece | fdf fdf | geg geg |\
fdf fdf | ecA AcA | Agf edc | d3- d2 :|


